!!!OTL: Yizhuan xiangfeng ji duo nan
!!!ARE: Asia, China,ÿGuangdong, Lechang
!! II, 400
!!!SCT: C1514
!!!YEM: Copyright 1995, estate of Helmut Schaffrath.
**kern
*ICvox
*Ivox
!! Mixed meters:  2/4; 3/4
*M3/4
*k[f#c#g#]
*A:
{8a
8a
8b
16cc#
16ee
=1
8ff#
8ee
16cc#
16b
8a}
=2
{8a
4.b
16cc#
16ee
16cc#
16b
=3
*M2/4
4.a
8b
=4
*M3/4
16cc#
16ee
8cc#
8b
4.a
=5
*M2/4
2b
=6
4a
4r}
=7
{8a
8a
8b
16cc#
16ee
=8
8ff#
8ee
16cc#
16b
8a}
=9
*M3/4
{8a
4.b
16cc#
16ee
16cc#
16b
=10
*M2/4
4.a
8b
=11
*M3/4
16cc#
16ee
8cc#
8b
4.a
=12
*M2/4
2b
=13
4a
4r}
==
!!!AGN: Shange, Guoshanbang diao
!!!AMT: irregular
!!!AIN: vox
!!!EED: Helmut Schaffrath
!!!EEV: 1.0
*-
